X:14
T:Edenside Rangers Quick March,The. Car.14
M:6/8
L:1/8
Q:3/8=145
S:CarlisleMS,Anon.c1812.AGG’s transcription
R:.Quickstep
O:England
A:Carlisle
Z:vmp.Chris Partington
K:Bb
F|B2d B2B|B2d B2d|d2f d2d|d2f d2f|!
{c’}bag {g}f2d|{c’}bag {g}f2d|{d}c2c c2c|{B}c2f edc|!
B2d B2B|B2d B2d|d2f d2d|d2f d2f|!
{c’}bag {g}f2d|{c’}bag {g}f2d|{d}c2B {B}AGA|{A}B2B B2||!
f|d2B f2f|d2B {g}f2f|bag fed|{d}c2c c2f|!
d2B f2f|d2B {g}f2f|fba bg=e|fgf “^DC”edc||!
f2f f2a|{c’}b3 z2a|{a}g2g a2b|{d}c’3 z2b|!
a2a c’2a|g2g b2g|aba gf=e|fgf “^DC”egf|]

